icons/merge-units-24.svg

<svg xmlns="http://www.w3.org/2000/svg" viewBox="0 0 24 24"><path d="M15 10h-1V9h1zm0-3h-1v1h1zm0 4h-1v1h1zm0 6h-1v1h1zm0-4h-1v1h1zm-1-9v2h1V5h8v15h-8v-1h-1v2h10V4zm1 11h-1v1h1zm-5 1h1v-1h-1zm0-2h1v-1h-1zm0 4h1v-1h-1zm-9 3h10v-2h-1v1H2V5h8v1h1V4H1zm9-13h1V7h-1zm0 4h1v-1h-1zm0-2h1V9h-1zm6 2.5l3 2.5v-2h3v-1h-3v-2zm-7 0L6 10v2H3v1h3v2z"/><path fill="none" d="M0 0h24v24H0z"/></svg>

<svg id="icons" xmlns="http://www.w3.org/2000/svg" viewBox="0 0 24 24"><defs><style>.cls-1{fill:none;}</style></defs><path d="M15,10H14V9h1Zm0-3H14V8h1Zm0,4H14v1h1Zm0,6H14v1h1Zm0-4H14v1h1ZM14,4V6h1V5h8V20H15V19H14v2H24V4Zm1,11H14v1h1Zm-5,1h1V15H10Zm0-2h1V13H10Zm0,4h1V17H10ZM1,21H11V19H10v1H2V5h8V6h1V4H1ZM10,8h1V7H10Zm0,4h1V11H10Zm0-2h1V9H10Zm6,2.49994L19,15V13h3V12H19V10Zm-7,0L6,10v2H3v1H6v2Z"/><rect class="cls-1" width="24" height="24"/></svg>
